svg/color/umee.svg

<svg viewBox="0 0 173 152" fill="none" xmlns="http://www.w3.org/2000/svg">
<g clip-path="url(#clip0_1487_170021)">
<path d="M0.100098 3.89944V57.4994V55.3994C0.500098 101.199 38.9001 140.299 86.4001 140.299C133.9 140.299 172.3 103.299 172.7 57.4994V3.89944C172.7 3.89944 160.7 -1.90056 147.1 11.9994C138.4 20.8994 131.4 53.0994 112.7 53.2994C87.7001 53.6994 70.7001 20.4994 50.4001 8.09943C29.1001 -4.90057 0.100098 3.89944 0.100098 3.89944Z" fill="url(#paint0_linear_1487_170021)"/>
<path d="M0.100098 3.89944V57.4994V55.3994C0.500098 101.199 38.9001 140.299 86.4001 140.299C133.9 140.299 172.3 103.299 172.7 57.4994V3.89944C172.7 3.89944 160.7 -1.90056 147.1 11.9994C138.4 20.8994 131.4 53.0994 112.7 53.2994C87.7001 53.6994 70.7001 20.4994 50.4001 8.09943C29.1001 -4.90057 0.100098 3.89944 0.100098 3.89944Z" fill="url(#paint1_linear_1487_170021)"/>
<path d="M172.7 62.7001V25.5001C167.8 26.3001 161.8 28.7001 155.5 34.5001C145.7 43.5001 137.9 76.0001 116.9 76.3001C88.9 76.7001 69.8 43.1001 47 30.5001C31.1 21.9001 11.4 22.9001 0 24.6001V62.8001V60.5001C0.4 109.5 38.9 151.3 86.3 151.3C133.8 151.3 172.3 111.7 172.7 62.7001Z" fill="url(#paint2_linear_1487_170021)"/>
<path d="M172.7 62.7001V25.5001C167.8 26.3001 161.8 28.7001 155.5 34.5001C145.7 43.5001 137.9 76.0001 116.9 76.3001C88.9 76.7001 69.8 43.1001 47 30.5001C31.1 21.9001 11.4 22.9001 0 24.6001V62.8001V60.5001C0.4 109.5 38.9 151.3 86.3 151.3C133.8 151.3 172.3 111.7 172.7 62.7001Z" fill="url(#paint3_linear_1487_170021)"/>
<path d="M172.7 62.7001V54.2001C169 55.6001 164.9 57.9001 160.7 61.5001C150.1 70.5001 141.7 103 119.1 103.3C88.9 103.7 68.4 70.1001 43.8 57.5001C29.6 50.4001 12.4 49.9001 0 50.9001V62.8001V60.5001C0.4 109.5 38.9 151.3 86.3 151.3C133.8 151.3 172.3 111.7 172.7 62.7001Z" fill="url(#paint4_linear_1487_170021)"/>
</g>
<defs>
<linearGradient id="paint0_linear_1487_170021" x1="-13.2909" y1="107.326" x2="207.298" y2="-8.01955" gradientUnits="userSpaceOnUse">
<stop stop-color="#FDA9FF"/>
<stop offset="0.028" stop-color="#F9AAFF"/>
<stop offset="0.243" stop-color="#DCB3FF"/>
<stop offset="0.367" stop-color="#D1B6FF"/>
<stop offset="0.89" stop-color="#4DFFE5"/>
</linearGradient>
<linearGradient id="paint1_linear_1487_170021" x1="76.7191" y1="71.1764" x2="99.4521" y2="-12.1766" gradientUnits="userSpaceOnUse">
<stop stop-color="#16183C" stop-opacity="0.3"/>
<stop offset="0.867" stop-color="#16183C" stop-opacity="0"/>
</linearGradient>
<linearGradient id="paint2_linear_1487_170021" x1="-5.976" y1="113.594" x2="191.881" y2="26.0311" gradientUnits="userSpaceOnUse">
<stop stop-color="#FDA9FF"/>
<stop offset="0.028" stop-color="#F9AAFF"/>
<stop offset="0.243" stop-color="#DCB3FF"/>
<stop offset="0.367" stop-color="#D1B6FF"/>
<stop offset="0.89" stop-color="#4DFFE5"/>
</linearGradient>
<linearGradient id="paint3_linear_1487_170021" x1="66.553" y1="94.5751" x2="96.863" y2="32.2711" gradientUnits="userSpaceOnUse">
<stop stop-color="#16183C" stop-opacity="0.3"/>
<stop offset="0.867" stop-color="#16183C" stop-opacity="0"/>
</linearGradient>
<linearGradient id="paint4_linear_1487_170021" x1="-14.459" y1="126.184" x2="163.191" y2="57.9861" gradientUnits="userSpaceOnUse">
<stop stop-color="#FDA9FF"/>
<stop offset="0.028" stop-color="#F9AAFF"/>
<stop offset="0.243" stop-color="#DCB3FF"/>
<stop offset="0.367" stop-color="#D1B6FF"/>
<stop offset="0.89" stop-color="#4DFFE5"/>
</linearGradient>
<clipPath id="clip0_1487_170021">
<rect width="173" height="152" fill="white"/>
</clipPath>
</defs>
</svg>

<svg xmlns="http://www.w3.org/2000/svg" fill="none" viewBox="0 0 173 152"><g clip-path="url(#umee_svg-a)"><path fill="url(#umee_svg-b)" d="M.1 3.9v53.6-2.1c.4 45.799 38.8 84.899 86.3 84.899s85.9-37 86.3-82.8V3.9s-12-5.8-25.6 8.1c-8.7 8.9-15.7 41.1-34.4 41.3-25 .4-42-32.8-62.3-45.2C29.1-4.9.1 3.9.1 3.9"/><path fill="url(#umee_svg-c)" d="M.1 3.9v53.6-2.1c.4 45.799 38.8 84.899 86.3 84.899s85.9-37 86.3-82.8V3.9s-12-5.8-25.6 8.1c-8.7 8.9-15.7 41.1-34.4 41.3-25 .4-42-32.8-62.3-45.2C29.1-4.9.1 3.9.1 3.9"/><path fill="url(#umee_svg-d)" d="M172.7 62.7V25.5c-4.9.8-10.9 3.2-17.2 9-9.8 9-17.6 41.5-38.6 41.8-28 .4-47.1-33.2-69.9-45.8-15.9-8.6-35.6-7.6-47-5.9v38.2-2.3c.4 49 38.9 90.8 86.3 90.8 47.5 0 86-39.6 86.4-88.6"/><path fill="url(#umee_svg-e)" d="M172.7 62.7V25.5c-4.9.8-10.9 3.2-17.2 9-9.8 9-17.6 41.5-38.6 41.8-28 .4-47.1-33.2-69.9-45.8-15.9-8.6-35.6-7.6-47-5.9v38.2-2.3c.4 49 38.9 90.8 86.3 90.8 47.5 0 86-39.6 86.4-88.6"/><path fill="url(#umee_svg-f)" d="M172.7 62.7v-8.5c-3.7 1.4-7.8 3.7-12 7.3-10.6 9-19 41.5-41.6 41.8-30.2.4-50.7-33.2-75.3-45.8-14.2-7.1-31.4-7.6-43.8-6.6v11.9-2.3c.4 49 38.9 90.8 86.3 90.8 47.5 0 86-39.6 86.4-88.6"/></g><defs><linearGradient id="umee_svg-b" x1="-13.291" x2="207.298" y1="107.326" y2="-8.02" gradientUnits="userSpaceOnUse"><stop stop-color="#FDA9FF"/><stop offset=".028" stop-color="#F9AAFF"/><stop offset=".243" stop-color="#DCB3FF"/><stop offset=".367" stop-color="#D1B6FF"/><stop offset=".89" stop-color="#4DFFE5"/></linearGradient><linearGradient id="umee_svg-c" x1="76.719" x2="99.452" y1="71.176" y2="-12.177" gradientUnits="userSpaceOnUse"><stop stop-color="#16183C" stop-opacity=".3"/><stop offset=".867" stop-color="#16183C" stop-opacity="0"/></linearGradient><linearGradient id="umee_svg-d" x1="-5.976" x2="191.881" y1="113.594" y2="26.031" gradientUnits="userSpaceOnUse"><stop stop-color="#FDA9FF"/><stop offset=".028" stop-color="#F9AAFF"/><stop offset=".243" stop-color="#DCB3FF"/><stop offset=".367" stop-color="#D1B6FF"/><stop offset=".89" stop-color="#4DFFE5"/></linearGradient><linearGradient id="umee_svg-e" x1="66.553" x2="96.863" y1="94.575" y2="32.271" gradientUnits="userSpaceOnUse"><stop stop-color="#16183C" stop-opacity=".3"/><stop offset=".867" stop-color="#16183C" stop-opacity="0"/></linearGradient><linearGradient id="umee_svg-f" x1="-14.459" x2="163.191" y1="126.184" y2="57.986" gradientUnits="userSpaceOnUse"><stop stop-color="#FDA9FF"/><stop offset=".028" stop-color="#F9AAFF"/><stop offset=".243" stop-color="#DCB3FF"/><stop offset=".367" stop-color="#D1B6FF"/><stop offset=".89" stop-color="#4DFFE5"/></linearGradient><clipPath id="umee_svg-a"><path fill="#fff" d="M0 0h173v152H0z"/></clipPath></defs></svg>
